; generated by Slic3r 1.0.1 on 2014-08-01 at 08:54:10

; layer_height = 0.325
; perimeters = 2
; top_solid_layers = 3
; bottom_solid_layers = 3
; fill_density = .5
; perimeter_speed = 10
; infill_speed = 10
; travel_speed = 160
; nozzle_diameter = 0.35
; filament_diameter = 2.89
; extrusion_multiplier = 1
; perimeters extrusion width = 0.38mm
; infill extrusion width = 0.68mm
; solid infill extrusion width = 0.50mm
; top infill extrusion width = 0.40mm
; first layer extrusion width = 0.53mm

G21 ; set units to millimeters
M107
G28 ; home all axes
M203 X192 Y208 Z3 ; Speed limits to minimize skipped steps when moving really fast courtesy of forum.lulzbot.com user 1013
G90 ; use absolute coordinates
G92 E0
M82 ; use absolute distances for extrusion
M204 S300
G1 F1500.000 E-2.00000
G92 E0
G1 Z0.325 F9600.000
G1 X127.802 Y95.191 F9600.000
G1 E2.00000 F1500.000
G1 X128.732 Y94.061 E2.03563 F450.000
G1 X129.862 Y93.131 E2.07126
G1 X131.152 Y92.441 E2.10687
G1 X132.552 Y92.021 E2.14246
G1 X134.012 Y91.881 E2.17816
G1 X145.982 Y91.881 E2.46957
G1 X147.442 Y92.021 E2.50528
G1 X148.842 Y92.441 E2.54086
G1 X150.132 Y93.131 E2.57648
G1 X151.262 Y94.061 E2.61210
G1 X152.192 Y95.191 E2.64773
G1 X152.882 Y96.471 E2.68313
G1 X159.422 Y112.161 E3.09696
G1 X159.782 Y113.271 E3.12537
G1 X171.552 Y161.671 E4.33800
G1 X171.712 Y162.551 E4.35978
G1 X171.762 Y163.441 E4.38148
G1 X171.762 Y180.641 E4.80021
G1 X171.622 Y182.101 E4.83592
G1 X171.202 Y183.501 E4.87150
G1 X170.502 Y184.791 E4.90723
G1 X169.572 Y185.921 E4.94286
G1 X168.442 Y186.851 E4.97849
G1 X167.152 Y187.551 E5.01422
G1 X165.752 Y187.971 E5.04980
G1 X164.292 Y188.111 E5.08551
G1 X115.702 Y188.111 E6.26843
G1 X114.242 Y187.971 E6.30413
G1 X112.842 Y187.551 E6.33972
G1 X111.552 Y186.851 E6.37545
G1 X110.422 Y185.921 E6.41108
G1 X109.492 Y184.791 E6.44670
G1 X108.792 Y183.501 E6.48243
G1 X108.372 Y182.101 E6.51802
G1 X108.232 Y180.641 E6.55372
G1 X108.232 Y163.441 E6.97246
G1 X108.282 Y162.551 E6.99416
G1 X108.442 Y161.671 E7.01593
G1 X120.212 Y113.271 E8.22857
G1 X120.572 Y112.161 E8.25697
G1 X127.112 Y96.471 E8.67080
G1 X127.767 Y95.256 E8.70441
G1 X128.212 Y95.461 F9600.000
G1 X129.082 Y94.411 E8.73760 F450.000
G1 X130.142 Y93.541 E8.77099
G1 X131.342 Y92.901 E8.80410
G1 X132.652 Y92.501 E8.83744
G1 X134.012 Y92.371 E8.87070
G1 X145.982 Y92.371 E9.16211
G1 X147.342 Y92.501 E9.19537
G1 X148.652 Y92.901 E9.22872
G1 X149.852 Y93.541 E9.26182
G1 X150.912 Y94.411 E9.29521
G1 X151.782 Y95.461 E9.32841
G1 X152.432 Y96.661 E9.36163
G1 X158.972 Y112.351 E9.77546
G1 X159.312 Y113.391 E9.80209
G1 X171.082 Y161.791 E11.01473
G1 X171.222 Y162.611 E11.03498
G1 X171.272 Y163.441 E11.05522
G1 X171.272 Y180.641 E11.47395
G1 X171.142 Y182.001 E11.50721
G1 X170.742 Y183.311 E11.54056
G1 X170.102 Y184.521 E11.57388
G1 X169.232 Y185.581 E11.60727
G1 X168.172 Y186.451 E11.64065
G1 X166.962 Y187.091 E11.67398
G1 X165.652 Y187.491 E11.70732
G1 X164.292 Y187.621 E11.74058
G1 X115.702 Y187.621 E12.92350
G1 X114.342 Y187.491 E12.95676
G1 X113.032 Y187.091 E12.99010
G1 X111.822 Y186.451 E13.02343
G1 X110.762 Y185.581 E13.05681
G1 X109.892 Y184.521 E13.09020
G1 X109.252 Y183.311 E13.12352
G1 X108.852 Y182.001 E13.15687
G1 X108.722 Y180.641 E13.19013
G1 X108.722 Y163.441 E13.60886
G1 X108.772 Y162.611 E13.62910
G1 X108.912 Y161.791 E13.64935
G1 X120.682 Y113.391 E14.86199
G1 X121.022 Y112.351 E14.88862
G1 X127.562 Y96.661 E15.30245
G1 X128.177 Y95.526 E15.33388
G1 X128.622 Y95.731 F9600.000
G1 X129.432 Y94.751 E15.36483 F450.000
G1 X130.412 Y93.951 E15.39563
G1 X131.532 Y93.351 E15.42656
G1 X132.752 Y92.981 E15.45760
G1 X134.012 Y92.861 E15.48841
G1 X145.982 Y92.861 E15.77982
G1 X147.242 Y92.981 E15.81063
G1 X148.462 Y93.351 E15.84167
G1 X149.582 Y93.951 E15.87260
G1 X150.562 Y94.751 E15.90340
G1 X151.372 Y95.731 E15.93435
G1 X151.972 Y96.851 E15.96529
G1 X158.512 Y112.541 E16.37911
G1 X158.832 Y113.511 E16.40398
G1 X170.602 Y161.911 E17.61661
G1 X170.742 Y162.671 E17.63543
G1 X170.782 Y163.441 E17.65420
G1 X170.782 Y180.641 E18.07293
G1 X170.662 Y181.911 E18.10398
G1 X170.292 Y183.121 E18.13479
G1 X169.692 Y184.251 E18.16594
G1 X168.882 Y185.231 E18.19689
G1 X167.902 Y186.041 E18.22784
G1 X166.772 Y186.641 E18.25899
G1 X165.562 Y187.011 E18.28979
G1 X164.292 Y187.131 E18.32085
G1 X115.702 Y187.131 E19.50377
G1 X114.432 Y187.011 E19.53482
G1 X113.222 Y186.641 E19.56562
G1 X112.092 Y186.041 E19.59677
G1 X111.112 Y185.231 E19.62772
G1 X110.302 Y184.251 E19.65868
G1 X109.702 Y183.121 E19.68982
G1 X109.332 Y181.911 E19.72063
G1 X109.212 Y180.641 E19.75168
G1 X109.212 Y163.441 E20.17042
G1 X109.252 Y162.671 E20.18919
G1 X109.392 Y161.911 E20.20800
G1 X121.162 Y113.511 E21.42063
G1 X121.482 Y112.541 E21.44550
G1 X128.022 Y96.851 E21.85933
G1 X128.587 Y95.796 E21.88846
G1 F1500.000 E19.88846
G92 E0
G1 X154.941 Y164.752 F9600.000
G1 E2.00000 F1500.000
G1 X162.994 Y164.752 E2.19606 F450.000
G1 X162.994 Y179.345 E2.55134
G1 X154.941 Y179.345 E2.74739
G1 X154.941 Y164.825 E3.10088
G1 X155.432 Y165.243 F9600.000
G1 X162.503 Y165.243 E3.27301 F337.500
G1 X162.503 Y178.854 E3.60437
G1 X155.432 Y178.854 E3.77650
G1 X155.432 Y165.317 E4.10607
G1 X155.432 Y164.752 F9600.000
G1 X157.001 Y164.204 F9600.000
G1 X163.541 Y164.204 E4.26529 F450.000
G1 X163.541 Y179.893 E4.64722
G1 X116.459 Y179.893 E5.79345
G1 X116.459 Y164.204 E6.17537
G1 X122.999 Y164.204 E6.33460
G1 X122.999 Y143.934 E6.82808
G1 X128.232 Y143.934 E6.95547
G1 X128.232 Y115.805 E7.64027
G1 X130.848 Y115.805 E7.70396
G1 X130.848 Y110.572 E7.83134
G1 X134.772 Y110.572 E7.92688
G1 X134.772 Y100.107 E8.18164
G1 X145.228 Y100.107 E8.43619
G1 X145.228 Y110.572 E8.69096
G1 X149.152 Y110.572 E8.78649
G1 X149.152 Y115.805 E8.91388
G1 X151.768 Y115.805 E8.97757
G1 X151.768 Y143.934 E9.66237
G1 X157.001 Y143.934 E9.78975
G1 X157.001 Y164.131 E10.28144
G1 X157.492 Y163.713 F9600.000
G1 X164.033 Y163.713 E10.44067 F337.500
G1 X164.033 Y180.384 E10.84652
G1 X115.967 Y180.384 E12.01667
G1 X115.967 Y163.713 E12.42252
G1 X122.508 Y163.713 E12.58175
G1 X122.508 Y143.443 E13.07523
G1 X127.740 Y143.443 E13.20261
G1 X127.740 Y115.313 E13.88742
G1 X130.356 Y115.313 E13.95111
G1 X130.356 Y110.081 E14.07849
G1 X134.281 Y110.081 E14.17403
G1 X134.281 Y99.616 E14.42879
G1 X145.719 Y99.616 E14.70726
G1 X145.719 Y110.081 E14.96203
G1 X149.644 Y110.081 E15.05756
G1 X149.644 Y115.313 E15.18495
G1 X152.260 Y115.313 E15.24864
G1 X152.260 Y143.443 E15.93344
G1 X157.492 Y143.443 E16.06082
G1 X157.492 Y163.639 E16.55251
G1 X157.492 Y164.204 F9600.000
G1 F1500.000 E14.55251
G92 E0
G1 X156.655 Y144.942 F9600.000
G1 E2.00000 F1500.000
G1 X155.993 Y144.280 E2.02280 F450.000
G1 X155.297 Y144.280 E2.03976
G1 X156.655 Y145.637 E2.08654
G1 X156.655 Y146.333 E2.10349
G1 X154.602 Y144.280 E2.17425
G1 X153.906 Y144.280 E2.19120
G1 X156.655 Y147.029 E2.28594
G1 X156.655 Y147.724 E2.30289
G1 X153.210 Y144.280 E2.42160
G1 X152.515 Y144.280 E2.43855
G1 X156.655 Y148.420 E2.58124
G1 X156.655 Y149.116 E2.59819
G1 X128.578 Y121.039 E3.56588
G1 X128.578 Y121.735 E3.58283
G1 X156.655 Y149.811 E4.55051
G1 X156.655 Y150.507 E4.56747
G1 X128.578 Y122.430 E5.53515
G1 X128.578 Y123.126 E5.55211
G1 X156.655 Y151.203 E6.51979
G1 X156.655 Y151.898 E6.53675
G1 X128.578 Y123.821 E7.50443
G1 X128.578 Y124.517 E7.52139
G1 X156.655 Y152.594 E8.48907
G1 X156.655 Y153.290 E8.50603
G1 X128.578 Y125.213 E9.47371
G1 X128.578 Y125.908 E9.49067
G1 X156.655 Y153.985 E10.45835
G1 X156.655 Y154.681 E10.47531
G1 X128.578 Y126.604 E11.44299
G1 X128.578 Y127.300 E11.45995
G1 X156.655 Y155.377 E12.42763
G1 X156.655 Y156.072 E12.44459
G1 X128.578 Y127.995 E13.41227
G1 X128.578 Y128.691 E13.42923
G1 X156.655 Y156.768 E14.39691
G1 X156.655 Y157.463 E14.41387
G1 X128.578 Y129.387 E15.38155
G1 X128.578 Y130.082 E15.39851
G1 X156.655 Y158.159 E16.36619
G1 X156.655 Y158.855 E16.38315
G1 X128.578 Y130.778 E17.35083
G1 X128.578 Y131.474 E17.36779
G1 X156.655 Y159.550 E18.33547
G1 X156.655 Y160.246 E18.35243
G1 X128.578 Y132.169 E19.32011
G1 X128.578 Y132.865 E19.33707
G1 X156.655 Y160.942 E20.30475
G1 X156.655 Y161.637 E20.32171
G1 X128.578 Y133.561 E21.28939
G1 X128.578 Y134.256 E21.30634
G1 X156.655 Y162.333 E22.27403
G1 X156.655 Y163.029 E22.29098
G1 X128.578 Y134.952 E23.25867
G1 X128.578 Y135.647 E23.27562
G1 X156.655 Y163.724 E24.24331
G1 X156.409 Y164.174 E24.25580
G1 X128.578 Y136.343 E25.21502
G1 X128.578 Y137.039 E25.23198
G1 X155.944 Y164.405 E26.17518
G1 X155.249 Y164.405 E26.19214
G1 X128.578 Y137.734 E27.11137
G1 X128.578 Y138.430 E27.12832
G1 X154.595 Y164.447 E28.02501
G1 X154.595 Y165.143 E28.04196
G1 X128.578 Y139.126 E28.93865
G1 X128.578 Y139.821 E28.95560
G1 X154.595 Y165.838 E29.85229
G1 X154.595 Y166.534 E29.86924
G1 X128.578 Y140.517 E30.76593
G1 X128.578 Y141.213 E30.78288
G1 X154.595 Y167.229 E31.67957
G1 X154.595 Y167.925 E31.69653
G1 X128.578 Y141.908 E32.59321
G1 X128.578 Y142.604 E32.61017
G1 X154.595 Y168.621 E33.50685
G1 X154.595 Y169.316 E33.52381
G1 X128.578 Y143.300 E34.42049
G1 X128.578 Y143.995 E34.43745
G1 X154.595 Y170.012 E35.33413
G1 X154.595 Y170.708 E35.35109
G1 X128.167 Y144.280 E36.26193
G1 X127.471 Y144.280 E36.27888
G1 X154.595 Y171.403 E37.21370
G1 X154.595 Y172.099 E37.23066
G1 X126.776 Y144.280 E38.18945
G1 X126.080 Y144.280 E38.20640
G1 X154.595 Y172.795 E39.18918
G1 X154.595 Y173.490 E39.20613
G1 X125.384 Y144.280 E40.21288
G1 X124.689 Y144.280 E40.22983
G1 X154.595 Y174.186 E41.26055
G1 X154.595 Y174.882 E41.27751
G1 X123.993 Y144.280 E42.33220
G1 X123.345 Y144.328 E42.34803
G1 X154.595 Y175.577 E43.42506
G1 X154.595 Y176.273 E43.44201
G1 X123.345 Y145.024 E44.51904
G1 X123.345 Y145.719 E44.53599
G1 X154.595 Y176.969 E45.61302
G1 X154.595 Y177.664 E45.62997
G1 X123.345 Y146.415 E46.70700
G1 X123.345 Y147.111 E46.72395
G1 X154.595 Y178.360 E47.80097
G1 X154.595 Y179.055 E47.81793
G1 X123.345 Y147.806 E48.89495
G1 X123.345 Y148.502 E48.91191
G1 X154.349 Y179.505 E49.98046
G1 X153.694 Y179.546 E49.99645
G1 X123.345 Y149.198 E51.04244
G1 X123.345 Y149.893 E51.05940
G1 X152.999 Y179.546 E52.08141
G1 X152.303 Y179.546 E52.09837
G1 X123.345 Y150.589 E53.09641
G1 X123.345 Y151.284 E53.11336
G1 X151.607 Y179.546 E54.08742
G1 X150.912 Y179.546 E54.10438
G1 X123.345 Y151.980 E55.05446
G1 X123.345 Y152.676 E55.07142
G1 X150.216 Y179.546 E55.99753
G1 X149.520 Y179.546 E56.01448
G1 X123.345 Y153.371 E56.91662
G1 X123.345 Y154.067 E56.93357
G1 X148.825 Y179.546 E57.81173
G1 X148.129 Y179.546 E57.82869
G1 X123.345 Y154.763 E58.68287
G1 X123.345 Y155.458 E58.69983
G1 X147.433 Y179.546 E59.53003
G1 X146.738 Y179.546 E59.54699
G1 X123.345 Y156.154 E60.35322
G1 X123.345 Y156.850 E60.37017
G1 X146.042 Y179.546 E61.15243
G1 X145.346 Y179.546 E61.16938
G1 X123.345 Y157.545 E61.92766
G1 X123.345 Y158.241 E61.94462
G1 X144.651 Y179.546 E62.67892
G1 X143.955 Y179.546 E62.69588
G1 X123.345 Y158.937 E63.40620
G1 X123.345 Y159.632 E63.42316
G1 X143.259 Y179.546 E64.10951
G1 X142.564 Y179.546 E64.12646
G1 X123.345 Y160.328 E64.78884
G1 X123.345 Y161.024 E64.80579
G1 X141.868 Y179.546 E65.44420
G1 X141.173 Y179.546 E65.46115
G1 X123.345 Y161.719 E66.07557
G1 X123.345 Y162.415 E66.09253
G1 X140.477 Y179.546 E66.68298
G1 X139.781 Y179.546 E66.69993
G1 X123.345 Y163.110 E67.26640
G1 X123.345 Y163.806 E67.28336
G1 X139.086 Y179.546 E67.82585
G1 X138.390 Y179.546 E67.84281
G1 X123.345 Y164.502 E68.36133
G1 X122.699 Y164.551 E68.37714
G1 X137.694 Y179.546 E68.89398
G1 X136.999 Y179.546 E68.91093
G1 X122.003 Y164.551 E69.42777
G1 X121.307 Y164.551 E69.44473
G1 X136.303 Y179.546 E69.96157
G1 X135.607 Y179.546 E69.97852
G1 X120.612 Y164.551 E70.49536
G1 X119.916 Y164.551 E70.51231
G1 X134.912 Y179.546 E71.02915
G1 X134.216 Y179.546 E71.04611
G1 X119.220 Y164.551 E71.56295
G1 X118.525 Y164.551 E71.57990
G1 X133.520 Y179.546 E72.09674
G1 X132.825 Y179.546 E72.11370
G1 X117.829 Y164.551 E72.63054
G1 X117.133 Y164.551 E72.64749
G1 X132.129 Y179.546 E73.16433
G1 X131.433 Y179.546 E73.18128
G1 X116.805 Y164.918 E73.68547
G1 X116.805 Y165.613 E73.70242
G1 X130.738 Y179.546 E74.18263
G1 X130.042 Y179.546 E74.19958
G1 X116.805 Y166.309 E74.65582
G1 X116.805 Y167.005 E74.67277
G1 X129.347 Y179.546 E75.10503
G1 X128.651 Y179.546 E75.12198
G1 X116.805 Y167.700 E75.53026
G1 X116.805 Y168.396 E75.54721
G1 X127.955 Y179.546 E75.93152
G1 X127.260 Y179.546 E75.94847
G1 X116.805 Y169.092 E76.30880
G1 X116.805 Y169.787 E76.32575
G1 X126.564 Y179.546 E76.66211
G1 X125.868 Y179.546 E76.67906
G1 X116.805 Y170.483 E76.99144
G1 X116.805 Y171.179 E77.00839
G1 X125.173 Y179.546 E77.29679
G1 X124.477 Y179.546 E77.31375
G1 X116.805 Y171.874 E77.57817
G1 X116.805 Y172.570 E77.59512
G1 X123.781 Y179.546 E77.83557
G1 X123.086 Y179.546 E77.85253
G1 X116.805 Y173.266 E78.06900
G1 X116.805 Y173.961 E78.08595
G1 X122.390 Y179.546 E78.27845
G1 X121.694 Y179.546 E78.29540
G1 X116.805 Y174.657 E78.46392
G1 X116.805 Y175.352 E78.48088
G1 X120.999 Y179.546 E78.62542
G1 X120.303 Y179.546 E78.64238
G1 X116.805 Y176.048 E78.76295
G1 X116.805 Y176.744 E78.77990
G1 X119.607 Y179.546 E78.87649
G1 X118.912 Y179.546 E78.89345
G1 X116.805 Y177.439 E78.96606
G1 X116.805 Y178.135 E78.98302
G1 X118.216 Y179.546 E79.03166
G1 X117.521 Y179.546 E79.04861
G1 X116.805 Y178.831 E79.07328
G1 X116.805 Y179.526 E79.09023
G1 X116.825 Y179.546 E79.09092
G1 F1500.000 E77.09092
G92 E0
G1 X151.422 Y143.188 F9600.000
G1 E2.00000 F1500.000
G1 X128.578 Y120.343 E2.78735 F450.000
G1 X128.578 Y119.648 E2.80430
G1 X151.422 Y142.492 E3.59165
G1 X151.422 Y141.796 E3.60860
G1 X128.578 Y118.952 E4.39595
G1 X128.578 Y118.256 E4.41290
G1 X151.422 Y141.101 E5.20025
G1 X151.422 Y140.405 E5.21721
G1 X128.578 Y117.561 E6.00455
G1 X128.578 Y116.865 E6.02151
G1 X151.422 Y139.709 E6.80886
G1 X151.422 Y139.014 E6.82581
G1 X128.578 Y116.169 E7.61316
G1 X129.255 Y116.151 E7.62967
G1 X151.422 Y138.318 E8.39368
G1 X151.422 Y137.622 E8.41063
G1 X129.951 Y116.151 E9.15066
G1 X130.646 Y116.151 E9.16762
G1 X151.422 Y136.927 E9.88368
G1 X151.422 Y136.231 E9.90063
G1 X131.194 Y116.003 E10.59781
G1 X131.194 Y115.307 E10.61476
G1 X151.422 Y135.536 E11.31194
G1 X151.422 Y134.840 E11.32889
G1 X131.194 Y114.612 E12.02607
G1 X131.194 Y113.916 E12.04303
G1 X151.422 Y134.144 E12.74021
G1 X151.422 Y133.449 E12.75716
G1 X131.194 Y113.220 E13.45434
G1 X131.194 Y112.525 E13.47129
G1 X151.422 Y132.753 E14.16847
G1 X151.422 Y132.057 E14.18542
G1 X131.194 Y111.829 E14.88260
G1 X131.194 Y111.133 E14.89956
G1 X151.422 Y131.362 E15.59673
G1 X151.422 Y130.666 E15.61369
G1 X131.675 Y110.918 E16.29430
G1 X132.370 Y110.918 E16.31125
G1 X151.422 Y129.970 E16.96789
G1 X151.422 Y129.275 E16.98485
G1 X133.066 Y110.918 E17.61751
G1 X133.762 Y110.918 E17.63446
G1 X151.422 Y128.579 E18.24315
G1 X151.422 Y127.883 E18.26010
G1 X134.457 Y110.918 E18.84481
G1 X135.118 Y110.884 E18.86094
G1 X151.422 Y127.188 E19.42287
G1 X151.422 Y126.492 E19.43982
G1 X135.118 Y110.188 E20.00174
G1 X135.118 Y109.493 E20.01870
G1 X151.422 Y125.796 E20.58062
G1 X151.422 Y125.101 E20.59758
G1 X135.118 Y108.797 E21.15950
G1 X135.118 Y108.101 E21.17646
G1 X151.422 Y124.405 E21.73838
G1 X151.422 Y123.710 E21.75533
G1 X135.118 Y107.406 E22.31726
G1 X135.118 Y106.710 E22.33421
G1 X151.422 Y123.014 E22.89614
G1 X151.422 Y122.318 E22.91309
G1 X135.118 Y106.014 E23.47502
G1 X135.118 Y105.319 E23.49197
G1 X151.422 Y121.623 E24.05390
G1 X151.422 Y120.927 E24.07085
G1 X135.118 Y104.623 E24.63278
G1 X135.118 Y103.927 E24.64973
G1 X151.422 Y120.231 E25.21165
G1 X151.422 Y119.536 E25.22861
G1 X135.118 Y103.232 E25.79053
G1 X135.118 Y102.536 E25.80749
